X:2
T:Blackbird
Z: id:dc-setdance-2
M:2/4
L:1/8
K:D Mixolydian
dc|BGBd|c2B2|AGFG|ABcA|d^cde|d=cAF|GAGF|D2DE|!
FEFG|A2fe|d^cde|dcAF|GAGF|D2D2|D2:|!
de|fede|f2g2|abag|fgaf|g2gf|gbaf|gagf|d2de|!
fede|f2g2|abag|fgaf|gagf|d2d2|!
defg|a3f|g3e|f3e|dcAG|ABcd|efge|a4|!
ABAG|FGAB|cBce|dcAF|GAGF|D2D2|D2:|!

